!! Isochronous pitch passage.
!! Inner-voice line.
!! From Schumann, Symphony No. 2, 2nd movement, Figure "L"
!! First violins
!! 2/4 meter
**kern	**metpos
*M2/4	*M2/4
*tb16	*tb16
=1	=1
16ee-	1
16cc	4
16a	3
16f#	4
16e-	2
16c	4
16A	3
16f#	4
=2	=2
16g	1
16fn	4
16en	3
16f	4
16e	2
16b	4
16cc	3
16dd	4
=3	=3
16ee-	1
16cc	4
16a	3
16f#	4
16e-	2
16c	4
16A	3
16f#	4
=4	=4
16g	1
16fn	4
16en	3
16f	4
16e	2
16b	4
16cc	3
16dd	4
=5	=5
16ee-	1
16cc	4
16a	3
16f#	4
16e-	2
16b	4
16cc	3
16dd	4
=6	=6
16ee-	1
16cc	4
16a	3
16f#	4
16e-	2
16dd	4
16ee-	3
16ffn	4
=7	=7
16gg	1
16ee-	4
16b-	3
16a-	4
16g	2
16e-	4
16B-	3
16cc	4
=8	=8
16b-	1
16a-	4
16g	3
16a-	4
16g	2
16ff#	4
16gg	3
16aan	4
=9	=9
16bb-	1
16gg	4
16ee-	3
16dd-	4
16b-	2
16ff#	4
16gg	3
16aa	4
=10	=10
16bb-	1
16gg	4
16ee-	3
16dd-	4
16b-	2
16aan	4
16bb-	3
16ccc	4
=11	=11
16ddd	1
16bb-	4
16g	3
16ee-	4
16dd	2
16b-	4
16g	3
16ee-	4
=12	=12
16dd	1
16cc	4
16a	3
16b-	4
16g	2
16aa	4
16bb-	3
16ccc	4
=13	=13
16ddd-	1
16bb-	4
16gg	3
16ee	4
16dd-	2
16aa	4
16bb-	3
16ccc	4
=14	=14
16ddd-	1
16bb-	4
16gg	3
16ee	4
16dd-	2
16r	4
16r	3
16r	4
=15	=15
16r	1
16r	4
16r	3
16bb-	4
16aa-	2
16aa-	4
16gg	3
16gg	4
=16	=16
16ff	1
16ff	4
16ee	3
16ee	4
16ff	2
16gg	4
16aa-	3
16bb-	4
=17	=17
16ccc-	1
16aa-	4
16ff	3
16dd	4
16cc-	2
16gg	4
16aa-	3
16bb-	4
=18	=18
16ccc-	1
16aa-	4
16ff	3
16dd	4
16cc-	2
16r	4
16r	3
16r	4
=19	=19
*-	*-
